X:1
T:RVW2/1/123 Carnal and the Crane
T:RVW2/1/123 Carnal and the Crane
T:Transcribed by Simon Furey and Lewis Jones Mr. Hirons, near Weobley, July 27th 1908(?) [4 of 4]
C:Transcribed by Simon Furey and Lewis Jones
C:Mr. Hirons, near Weobley, July 27th 1908(?) [4 of 4]
L:1/8
Q:1/4=100
M:4/4
K:F
V:1 treble 
V:1
"^(a)""^(Editorial suggestion)" C2 |"^(b)" F2 F>G A2 C2 |"^(c)" E2 E2 C2 C2 | F2 FG A2 B2 | %4
 G6 A>B | c3 B A2 GF |"^(d)" EFGA B2 AB | c3 B AF G2 | F6 ||"^(a) var." C>E | %10
"^(b) var. 1" F2 F>G A2 G2 |"^(c) var." E2 E2 EC C2 | F2 FG A2 B2 | G6 A>B | c3 B A2 F2 | %15
"^(d) var" EA B4 AB | c3 B AF G2 | F6 || C2 |"^(b) var. 2" F2 F>G A2 AG | E2 E2 C2 C2 | %21
 F2 FG A2 B2 | G6 A>B | c3 B A2 GF | EFGA B2 AB | c3 B AF G2 | F6 |] %27

